libs/ui/packages/crypto-icons/src/svg/UBQ.svg

<svg width="24" height="24" viewBox="0 0 24 24" fill="none">
<path d="M13.6613 5.63101L19.494 8.68201L13.8743 12.1268L13.6613 5.63101ZM10.3388 18.3368L4.50601 15.2858L10.1258 11.8403L10.3388 18.3368Z" fill="#00EA90" fill-opacity="0.2"/>
<path d="M19.494 15.5093L11.3843 20.25V13.5983L19.494 8.682V15.5093ZM4.50601 8.45925L12.6158 3.75V10.3755L4.50601 15.2858V8.4585V8.45925Z" fill="#00EA90"/>
</svg>

<svg width="24" height="24" viewBox="0 0 24 24" fill="none"><path fill="#00ea90" fill-opacity=".2" d="m13.661 5.631 5.833 3.051-5.62 3.445zM10.34 18.337l-5.833-3.051 5.62-3.446z"/><path fill="#00ea90" d="m19.494 15.51-8.11 4.74v-6.652l8.11-4.916zM4.506 8.46l8.11-4.71v6.626l-8.11 4.91V8.459"/></svg>
